luts/Hotel Matze.cube
LUT_3D_SIZE 6
0.008579 0.008579 0.008579
0.077705 0.077705 0.077705
0.146789 0.146789 0.146789
0.188324 0.188324 0.188324
0.214870 0.214870 0.214870
0.237289 0.237289 0.237289
0.087862 0.087862 0.087862
0.125740 0.125740 0.125740
0.226500 0.226500 0.226500
0.313600 0.313600 0.313600
0.356932 0.356932 0.356932
0.393421 0.393421 0.393421
0.186481 0.186481 0.186481
0.210483 0.210483 0.210483
0.321131 0.321131 0.321131
0.434623 0.434623 0.434623
0.499644 0.499644 0.499644
0.539737 0.539737 0.539737
0.272591 0.272591 0.272591
0.280682 0.280682 0.280682
0.393268 0.393268 0.393268
0.524936 0.524936 0.524936
0.608606 0.608606 0.608606
0.650259 0.650259 0.650259
0.344926 0.344926 0.344926
0.359497 0.359497 0.359497
0.458358 0.458358 0.458358
0.597932 0.597932 0.597932
0.696136 0.696136 0.696136
0.736688 0.736688 0.736688
0.406108 0.406108 0.406108
0.422754 0.422754 0.422754
0.495508 0.495508 0.495508
0.656574 0.656574 0.656574
0.747940 0.747940 0.747940
0.790306 0.790306 0.790306
0.049637 0.049637 0.049637
0.132712 0.132712 0.132712
0.181578 0.181578 0.181578
0.212727 0.212727 0.212727
0.229899 0.229899 0.229899
0.244801 0.244801 0.244801
0.115749 0.115749 0.115749
0.157812 0.157812 0.157812
0.259305 0.259305 0.259305
0.330060 0.330060 0.330060
0.366594 0.366594 0.366594
0.394894 0.394894 0.394894
0.225640 0.225640 0.225640
0.234365 0.234365 0.234365
0.368415 0.368415 0.368415
0.469560 0.469560 0.469560
0.520928 0.520928 0.520928
0.550525 0.550525 0.550525
0.315685 0.315685 0.315685
0.328600 0.328600 0.328600
0.446735 0.446735 0.446735
0.570318 0.570318 0.570318
0.641550 0.641550 0.641550
0.674104 0.674104 0.674104
0.386280 0.386280 0.386280
0.403642 0.403642 0.403642
0.500222 0.500222 0.500222
0.651979 0.651979 0.651979
0.739824 0.739824 0.739824
0.774292 0.774292 0.774292
0.440049 0.440049 0.440049
0.456512 0.456512 0.456512
0.519243 0.519243 0.519243
0.695024 0.695024 0.695024
0.797942 0.797942 0.797942
0.841032 0.841032 0.841032
0.153637 0.153637 0.153637
0.240692 0.240692 0.240692
0.229176 0.229176 0.229176
0.252900 0.252900 0.252900
0.268011 0.268011 0.268011
0.283419 0.283419 0.283419
0.142094 0.142094 0.142094
0.206560 0.206560 0.206560
0.303656 0.303656 0.303656
0.366417 0.366417 0.366417
0.404402 0.404402 0.404402
0.433185 0.433185 0.433185
0.265693 0.265693 0.265693
0.277863 0.277863 0.277863
0.434357 0.434357 0.434357
0.526222 0.526222 0.526222
0.573067 0.573067 0.573067
0.606442 0.606442 0.606442
0.363994 0.363994 0.363994
0.380307 0.380307 0.380307
0.510674 0.510674 0.510674
0.630029 0.630029 0.630029
0.699439 0.699439 0.699439
0.737499 0.737499 0.737499
0.436736 0.436736 0.436736
0.456585 0.456585 0.456585
0.557201 0.557201 0.557201
0.703662 0.703662 0.703662
0.789764 0.789764 0.789764
0.828079 0.828079 0.828079
0.483027 0.483027 0.483027
0.501429 0.501429 0.501429
0.563773 0.563773 0.563773
0.743819 0.743819 0.743819
0.846353 0.846353 0.846353
0.887737 0.887737 0.887737
0.243323 0.243323 0.243323
0.279965 0.279965 0.279965
0.288782 0.288782 0.288782
0.281746 0.281746 0.281746
0.295498 0.295498 0.295498
0.308674 0.308674 0.308674
0.187864 0.187864 0.187865
0.258975 0.258975 0.258975
0.333156 0.333156 0.333156
0.381930 0.381930 0.381930
0.417415 0.417415 0.417415
0.448525 0.448525 0.448525
0.296066 0.296066 0.296066
0.359743 0.359743 0.359743
0.478374 0.478374 0.478374
0.563927 0.563927 0.563927
0.604706 0.604706 0.604706
0.636191 0.636191 0.636191
0.403685 0.403685 0.403685
0.420575 0.420575 0.420575
0.580254 0.580254 0.580254
0.680445 0.680445 0.680445
0.737931 0.737931 0.737931
0.776547 0.776547 0.776547
0.482739 0.482739 0.482739
0.502569 0.502569 0.502569
0.630807 0.630807 0.630807
0.751101 0.751101 0.751101
0.828378 0.828378 0.828378
0.868437 0.868437 0.868437
0.527049 0.527049 0.527049
0.545935 0.545935 0.545935
0.647506 0.647506 0.647506
0.789126 0.789126 0.789126
0.883088 0.883088 0.883088
0.926226 0.926226 0.926226
0.288291 0.288291 0.288291
0.303681 0.303681 0.303681
0.312810 0.312810 0.312810
0.305813 0.305813 0.305813
0.315867 0.315867 0.315867
0.325326 0.325326 0.325326
0.245295 0.245295 0.245295
0.291426 0.291426 0.291426
0.343386 0.343386 0.343386
0.375019 0.375019 0.375019
0.407772 0.407772 0.407772
0.442838 0.442838 0.442838
0.350758 0.350758 0.350758
0.437307 0.437307 0.437307
0.514596 0.514596 0.514596
0.580988 0.580988 0.580988
0.622181 0.622181 0.622181
0.650366 0.650366 0.650366
0.433362 0.433362 0.433362
0.507048 0.507048 0.507048
0.629355 0.629355 0.629355
0.722424 0.722424 0.722424
0.764248 0.764248 0.764248
0.799526 0.799526 0.799526
0.516364 0.516364 0.516364
0.536163 0.536163 0.536163
0.694731 0.694731 0.694731
0.795770 0.795770 0.795770
0.857890 0.857890 0.857890
0.898981 0.898981 0.898981
0.560738 0.560738 0.560738
0.582170 0.582170 0.582170
0.726113 0.726113 0.726113
0.834997 0.834997 0.834997
0.914398 0.914398 0.914398
0.958555 0.958555 0.958555
0.312495 0.312495 0.312495
0.318019 0.318019 0.318019
0.323150 0.323150 0.323150
0.326042 0.326042 0.326042
0.321826 0.321826 0.321826
0.331531 0.331531 0.331531
0.265918 0.265918 0.265918
0.288495 0.288495 0.288495
0.307916 0.307916 0.307916
0.333180 0.333180 0.333180
0.370381 0.370381 0.370381
0.416437 0.416437 0.416437
0.447070 0.447070 0.447070
0.485618 0.485618 0.485618
0.546082 0.546082 0.546082
0.586860 0.586860 0.586860
0.625104 0.625104 0.625104
0.648660 0.648660 0.648660
0.529093 0.529093 0.529093
0.603844 0.603844 0.603844
0.672554 0.672554 0.672554
0.739652 0.739652 0.739652
0.777352 0.777352 0.777352
0.805875 0.805875 0.805875
0.548967 0.548967 0.548967
0.661935 0.661935 0.661935
0.745939 0.745939 0.745939
0.836276 0.836276 0.836276
0.875667 0.875667 0.875667
0.914206 0.914206 0.914206
0.598788 0.598788 0.598788
0.673718 0.673718 0.673718
0.784048 0.784048 0.784048
0.879622 0.879622 0.879622
0.936587 0.936587 0.936587
0.978777 0.978777 0.978777
