luts/Hotel Matze.cube
LUT_3D_SIZE 16
0.008579 0.008579 0.008579
0.026711 0.026711 0.026711
0.048533 0.048533 0.048533
0.077705 0.077705 0.077705
0.106744 0.106744 0.106744
0.127387 0.127387 0.127387
0.146789 0.146789 0.146789
0.163605 0.163605 0.163605
0.176055 0.176055 0.176055
0.188324 0.188324 0.188324
0.200012 0.200012 0.200012
0.208679 0.208679 0.208679
0.214870 0.214870 0.214870
0.221071 0.221071 0.221071
0.227246 0.227246 0.227246
0.237289 0.237289 0.237289
0.039553 0.039553 0.039553
0.045498 0.045498 0.045498
0.059875 0.059875 0.059875
0.080393 0.080393 0.080393
0.110277 0.110277 0.110277
0.145787 0.145787 0.145787
0.174682 0.174682 0.174682
0.198251 0.198251 0.198251
0.216946 0.216946 0.216946
0.229006 0.229006 0.229006
0.240254 0.240254 0.240254
0.251838 0.251838 0.251838
0.263682 0.263682 0.263682
0.274998 0.274998 0.274998
0.286847 0.286847 0.286847
0.298997 0.298997 0.298997
0.061690 0.061690 0.061690
0.067385 0.067385 0.067385
0.080403 0.080403 0.080403
0.099644 0.099644 0.099644
0.126098 0.126098 0.126098
0.161468 0.161468 0.161468
0.198243 0.198243 0.198243
0.225506 0.225506 0.225506
0.251975 0.251975 0.251975
0.271153 0.271153 0.271153
0.284268 0.284268 0.284268
0.297518 0.297518 0.297518
0.311031 0.311031 0.311031
0.322590 0.322590 0.322590
0.332906 0.332906 0.332906
0.343773 0.343773 0.343773
0.087862 0.087862 0.087862
0.093701 0.093701 0.093701
0.106533 0.106533 0.106533
0.125740 0.125740 0.125740
0.150606 0.150606 0.150606
0.184020 0.184020 0.184020
0.226500 0.226500 0.226500
0.256303 0.256303 0.256303
0.285125 0.285125 0.285125
0.313600 0.313600 0.313600
0.327806 0.327806 0.327806
0.342234 0.342234 0.342234
0.356932 0.356932 0.356932
0.371241 0.371241 0.371241
0.382619 0.382619 0.382619
0.393421 0.393421 0.393421
0.119565 0.119565 0.119565
0.120481 0.120481 0.120481
0.134025 0.134025 0.134025
0.155927 0.155927 0.155927
0.181989 0.181989 0.181989
0.214893 0.214893 0.214893
0.257052 0.257052 0.257052
0.294403 0.294403 0.294403
0.324457 0.324457 0.324457
0.354946 0.354946 0.354946
0.376333 0.376333 0.376333
0.390830 0.390830 0.390830
0.405430 0.405430 0.405430
0.420154 0.420154 0.420154
0.432536 0.432536 0.432536
0.441806 0.441806 0.441806
0.153830 0.153830 0.153830
0.152972 0.152972 0.152972
0.161559 0.161559 0.161559
0.186553 0.186553 0.186553
0.215235 0.215235 0.215235
0.248735 0.248735 0.248735
0.290854 0.290854 0.290854
0.334249 0.334249 0.334249
0.365201 0.365201 0.365201
0.396181 0.396181 0.396181
0.423721 0.423721 0.423721
0.439575 0.439575 0.439575
0.454058 0.454058 0.454058
0.468655 0.468655 0.468655
0.482857 0.482857 0.482857
0.492678 0.492678 0.492678
0.186481 0.186481 0.186481
0.185666 0.185666 0.185666
0.187711 0.187711 0.187711
0.210483 0.210483 0.210483
0.243519 0.243519 0.243519
0.278157 0.278157 0.278157
0.321131 0.321131 0.321131
0.368010 0.368010 0.368010
0.402869 0.402869 0.402869
0.434623 0.434623 0.434623
0.465350 0.465350 0.465350
0.485363 0.485363 0.485363
0.499644 0.499644 0.499644
0.513856 0.513856 0.513856
0.528006 0.528006 0.528006
0.539737 0.539737 0.539737
0.217882 0.217882 0.217882
0.217262 0.217262 0.217262
0.219593 0.219593 0.219593
0.228706 0.228706 0.228706
0.267501 0.267501 0.267501
0.304661 0.304661 0.304661
0.348223 0.348223 0.348223
0.396793 0.396793 0.396793
0.435064 0.435064 0.435064
0.467042 0.467042 0.467042
0.499324 0.499324 0.499324
0.523362 0.523362 0.523362
0.537755 0.537755 0.537755
0.551639 0.551639 0.551639
0.565456 0.565456 0.565456
0.579097 0.579097 0.579097
0.245579 0.245579 0.245579
0.245476 0.245476 0.245476
0.248322 0.248322 0.248322
0.253549 0.253549 0.253549
0.285388 0.285388 0.285388
0.328119 0.328119 0.328119
0.373133 0.373133 0.373133
0.424227 0.424227 0.424227
0.466337 0.466337 0.466337
0.499317 0.499317 0.499317
0.531811 0.531811 0.531811
0.559705 0.559705 0.559705
0.575727 0.575727 0.575727
0.589426 0.589426 0.589426
0.603053 0.603053 0.603053
0.616505 0.616505 0.616505
0.272591 0.272591 0.272591
0.272493 0.272493 0.272493
0.275624 0.275624 0.275624
0.280682 0.280682 0.280682
0.298754 0.298754 0.298754
0.347800 0.347800 0.347800
0.393268 0.393268 0.393268
0.445950 0.445950 0.445950
0.491067 0.491067 0.491067
0.524936 0.524936 0.524936
0.558119 0.558119 0.558119
0.590261 0.590261 0.590261
0.608606 0.608606 0.608606
0.622689 0.622689 0.622689
0.636604 0.636604 0.636604
0.650259 0.650259 0.650259
0.300563 0.300563 0.300563
0.300714 0.300714 0.300714
0.304376 0.304376 0.304376
0.309398 0.309398 0.309398
0.322142 0.322142 0.322142
0.365936 0.365936 0.365936
0.415465 0.415465 0.415465
0.466482 0.466482 0.466482
0.513911 0.513911 0.513911
0.548994 0.548994 0.548994
0.582120 0.582120 0.582120
0.615843 0.615843 0.615843
0.637287 0.637287 0.637287
0.651224 0.651224 0.651224
0.665006 0.665006 0.665006
0.678534 0.678534 0.678534
0.325104 0.325104 0.325104
0.327004 0.327004 0.327004
0.331585 0.331585 0.331585
0.337424 0.337424 0.337424
0.345756 0.345756 0.345756
0.383329 0.383329 0.383329
0.439521 0.439521 0.439521
0.489411 0.489411 0.489412
0.537359 0.537359 0.537359
0.573740 0.573740 0.573740
0.607041 0.607041 0.607041
0.640658 0.640658 0.640658
0.666603 0.666603 0.666603
0.680386 0.680386 0.680386
0.694026 0.694026 0.694026
0.707412 0.707412 0.707412
0.344926 0.344926 0.344926
0.348556 0.348556 0.348556
0.353305 0.353305 0.353305
0.359497 0.359497 0.359497
0.367518 0.367518 0.367518
0.397875 0.397875 0.397875
0.458358 0.458358 0.458358
0.512385 0.512385 0.512385
0.560056 0.560056 0.560056
0.597932 0.597932 0.597932
0.632296 0.632296 0.632296
0.665929 0.665929 0.665929
0.696136 0.696136 0.696136
0.709838 0.709838 0.709838
0.723392 0.723392 0.723392
0.736688 0.736688 0.736688
0.365416 0.365416 0.365416
0.369830 0.369830 0.369830
0.374459 0.374459 0.374459
0.380512 0.380512 0.380512
0.388351 0.388351 0.388351
0.406439 0.406439 0.406439
0.471911 0.471911 0.471911
0.529490 0.529490 0.529490
0.580092 0.580092 0.580092
0.613769 0.613769 0.613769
0.646389 0.646389 0.646389
0.680494 0.680494 0.680494
0.715265 0.715265 0.715265
0.730784 0.730784 0.730784
0.745491 0.745491 0.745491
0.759831 0.759831 0.759831
0.386722 0.386722 0.386722
0.391344 0.391344 0.391344
0.396103 0.396103 0.396103
0.402011 0.402011 0.402011
0.409659 0.409659 0.409659
0.419321 0.419321 0.419321
0.484508 0.484508 0.484508
0.545949 0.545949 0.545949
0.599817 0.599817 0.599817
0.636343 0.636343 0.636343
0.666241 0.666241 0.666241
0.695696 0.695696 0.695696
0.728040 0.728040 0.728040
0.746273 0.746273 0.746273
0.760876 0.760876 0.760876
0.775127 0.775127 0.775127
0.406108 0.406108 0.406108
0.410913 0.410913 0.410913
0.416163 0.416163 0.416163
0.422754 0.422754 0.422754
0.431032 0.431032 0.431032
0.440682 0.440682 0.440682
0.495508 0.495508 0.495508
0.562069 0.562069 0.562069
0.618430 0.618430 0.618430
0.656574 0.656574 0.656574
0.688313 0.688313 0.688313
0.718738 0.718738 0.718738
0.747940 0.747940 0.747940
0.763384 0.763384 0.763384
0.776141 0.776141 0.776141
0.790306 0.790306 0.790306
0.017948 0.017948 0.017948
0.050506 0.050506 0.050507
0.071307 0.071307 0.071307
0.096485 0.096485 0.096485
0.116378 0.116378 0.116378
0.137983 0.137983 0.137983
0.159690 0.159690 0.159690
0.171692 0.171692 0.171692
0.183426 0.183426 0.183426
0.195136 0.195136 0.195136
0.205753 0.205753 0.205753
0.212601 0.212601 0.212601
0.218565 0.218565 0.218565
0.224560 0.224560 0.224560
0.230577 0.230577 0.230577
0.236540 0.236540 0.236540
0.044467 0.044467 0.044467
0.052972 0.052972 0.052972
0.069465 0.069465 0.069465
0.091616 0.091616 0.091616
0.123935 0.123935 0.123935
0.157170 0.157170 0.157170
0.181419 0.181419 0.181419
0.201152 0.201152 0.201152
0.215148 0.215148 0.215148
0.225187 0.225187 0.225187
0.235321 0.235321 0.235321
0.245900 0.245900 0.245900
0.256835 0.256835 0.256835
0.268278 0.268278 0.268278
0.280812 0.280812 0.280812
0.293907 0.293907 0.293907
0.067426 0.067426 0.067426
0.074978 0.074978 0.074978
0.089528 0.089528 0.089528
0.109586 0.109586 0.109586
0.137913 0.137913 0.137913
0.174250 0.174250 0.174250
0.206000 0.206000 0.206000
0.230993 0.230993 0.230993
0.255093 0.255093 0.255093
0.270676 0.270676 0.270676
0.283404 0.283404 0.283404
0.296280 0.296280 0.296280
0.309168 0.309168 0.309168
0.319808 0.319808 0.319808
0.330233 0.330233 0.330233
0.341258 0.341258 0.341258
0.096428 0.096428 0.096428
0.100291 0.100291 0.100291
0.115043 0.115043 0.115043
0.135547 0.135547 0.135547
0.161987 0.161987 0.161987
0.196885 0.196885 0.196885
0.235899 0.235899 0.235899
0.262447 0.262447 0.262447
0.289821 0.289821 0.289821
0.314014 0.314014 0.314014
0.327957 0.327957 0.327957
0.342171 0.342171 0.342171
0.356696 0.356696 0.356696
0.370427 0.370427 0.370427
0.380862 0.380862 0.380862
0.391563 0.391563 0.391563
0.128394 0.128394 0.128394
0.127964 0.127964 0.127964
0.141801 0.141801 0.141801
0.165476 0.165476 0.165476
0.192970 0.192970 0.192970
0.227567 0.227567 0.227567
0.269323 0.269323 0.269323
0.301128 0.301128 0.301128
0.329969 0.329969 0.329969
0.359930 0.359930 0.359930
0.378040 0.378040 0.378040
0.392404 0.392404 0.392404
0.406873 0.406873 0.406873
0.421186 0.421186 0.421186
0.432674 0.432674 0.432674
0.441768 0.441768 0.441768
0.164333 0.164333 0.164333
0.162748 0.162748 0.162748
0.169370 0.169370 0.169370
0.195732 0.195732 0.195732
0.225925 0.225925 0.225925
0.260615 0.260615 0.260615
0.301909 0.301909 0.301909
0.339988 0.339988 0.339988
0.369611 0.369611 0.369611
0.400222 0.400222 0.400222
0.426087 0.426087 0.426087
0.440748 0.440748 0.440748
0.455206 0.455206 0.455206
0.469766 0.469766 0.469766
0.483352 0.483352 0.483352
0.492646 0.492646 0.492646
0.198160 0.198160 0.198160
0.196756 0.196756 0.196756
0.198949 0.198949 0.198949
0.218547 0.218547 0.218547
0.254629 0.254629 0.254629
0.291259 0.291259 0.291259
0.333394 0.333394 0.333394
0.376910 0.376910 0.376910
0.408498 0.408498 0.408498
0.439930 0.439930 0.439930
0.469951 0.469951 0.469951
0.488203 0.488203 0.488203
0.502483 0.502483 0.502483
0.516680 0.516680 0.516680
0.530819 0.530819 0.530819
0.541519 0.541519 0.541519
0.231227 0.231227 0.231227
0.230122 0.230122 0.230122
0.232507 0.232507 0.232507
0.238371 0.238371 0.238371
0.278246 0.278246 0.278246
0.318237 0.318237 0.318237
0.361057 0.361057 0.361057
0.405996 0.405996 0.405996
0.441068 0.441068 0.441068
0.472321 0.472321 0.472321
0.504226 0.504226 0.504226
0.526694 0.526694 0.526694
0.540816 0.540816 0.540816
0.554701 0.554701 0.554701
0.568518 0.568518 0.568518
0.581623 0.581623 0.581623
0.260409 0.260409 0.260409
0.260109 0.260109 0.260109
0.263252 0.263252 0.263252
0.268297 0.268297 0.268297
0.294935 0.294935 0.294935
0.343063 0.343063 0.343063
0.388390 0.388390 0.388390
0.435388 0.435388 0.435388
0.473815 0.473815 0.473815
0.504893 0.504893 0.504893
0.537441 0.537441 0.537441
0.563944 0.563944 0.563944
0.579225 0.579225 0.579225
0.592916 0.592916 0.592916
0.606543 0.606543 0.606543
0.620009 0.620009 0.620009
0.287593 0.287593 0.287593
0.287478 0.287478 0.287478
0.291133 0.291133 0.291133
0.296308 0.296308 0.296308
0.313156 0.313156 0.313156
0.362568 0.362568 0.362568
0.411661 0.411661 0.411661
0.460375 0.460375 0.460375
0.500992 0.500992 0.500992
0.532754 0.532754 0.532754
0.565383 0.565383 0.565383
0.596296 0.596296 0.596296
0.613923 0.613923 0.613923
0.627923 0.627923 0.627923
0.641770 0.641770 0.641770
0.655367 0.655367 0.655367
0.315243 0.315243 0.315243
0.315853 0.315853 0.315853
0.319758 0.319758 0.319758
0.324893 0.324893 0.324893
0.335078 0.335078 0.335078
0.378083 0.378083 0.378083
0.433839 0.433839 0.433839
0.484744 0.484744 0.484744
0.526592 0.526592 0.526592
0.558498 0.558498 0.558498
0.590088 0.590088 0.590088
0.623244 0.623244 0.623244
0.643184 0.643184 0.643184
0.657065 0.657065 0.657065
0.670797 0.670797 0.670797
0.684279 0.684279 0.684279
0.340140 0.340140 0.340140
0.342789 0.342789 0.342789
0.347256 0.347256 0.347256
0.353157 0.353157 0.353157
0.360748 0.360748 0.360748
0.395305 0.395305 0.395305
0.455616 0.455616 0.455616
0.509345 0.509345 0.509345
0.553969 0.553969 0.553969
0.585149 0.585149 0.585149
0.616325 0.616325 0.616325
0.648451 0.648451 0.648451
0.672500 0.672500 0.672500
0.686286 0.686286 0.686286
0.699925 0.699925 0.699925
0.713301 0.713301 0.713301
0.359571 0.359571 0.359571
0.364145 0.364145 0.364145
0.368993 0.368993 0.368993
0.375179 0.375179 0.375179
0.383222 0.383222 0.383222
0.407901 0.407901 0.407901
0.472815 0.472815 0.472815
0.531245 0.531245 0.531245
0.581210 0.581210 0.581210
0.615209 0.615209 0.615209
0.643884 0.643884 0.643884
0.675267 0.675267 0.675267
0.701877 0.701877 0.701877
0.715510 0.715510 0.715510
0.729069 0.729069 0.729069
0.742366 0.742366 0.742366
0.379126 0.379126 0.379126
0.383850 0.383850 0.383850
0.388897 0.388897 0.388897
0.395323 0.395323 0.395323
0.403419 0.403419 0.403419
0.415678 0.415678 0.415678
0.484289 0.484289 0.484289
0.545789 0.545789 0.545789
0.598396 0.598396 0.598396
0.634782 0.634782 0.634782
0.665792 0.665792 0.665792
0.695883 0.695883 0.695883
0.725942 0.725942 0.725942
0.739216 0.739216 0.739216
0.752892 0.752892 0.752892
0.766693 0.766693 0.766693
0.397868 0.397868 0.397868
0.402710 0.402710 0.402710
0.408027 0.408027 0.408027
0.414659 0.414659 0.414659
0.423024 0.423024 0.423024
0.433328 0.433328 0.433328
0.494647 0.494647 0.494647
0.560385 0.560385 0.560385
0.615463 0.615463 0.615463
0.653182 0.653182 0.653182
0.685447 0.685447 0.685447
0.716697 0.716697 0.716697
0.747153 0.747153 0.747153
0.760686 0.760686 0.760686
0.771898 0.771898 0.771898
0.784351 0.784351 0.784351
0.416661 0.416661 0.416661
0.421450 0.421450 0.421450
0.426662 0.426662 0.426662
0.433183 0.433183 0.433183
0.441543 0.441543 0.441543
0.452033 0.452033 0.452033
0.503195 0.503195 0.503195
0.574556 0.574556 0.574556
0.632004 0.632004 0.632004
0.670922 0.670922 0.670922
0.704037 0.704037 0.704037
0.736231 0.736231 0.736231
0.768214 0.768214 0.768214
0.785365 0.785365 0.785365
0.796921 0.796921 0.796921
0.807708 0.807708 0.807708
0.030653 0.030653 0.030653
0.076008 0.076008 0.076008
0.095766 0.095766 0.095766
0.109743 0.109743 0.109743
0.129226 0.129226 0.129226
0.152074 0.152074 0.152074
0.168496 0.168496 0.168496
0.179587 0.179587 0.179587
0.190495 0.190495 0.190495
0.201226 0.201226 0.201226
0.210371 0.210371 0.210371
0.216165 0.216165 0.216165
0.221979 0.221979 0.221979
0.227823 0.227823 0.227823
0.233693 0.233693 0.233693
0.239516 0.239516 0.239516
0.051776 0.051776 0.051776
0.061918 0.061918 0.061918
0.079745 0.079745 0.079745
0.103066 0.103066 0.103066
0.136329 0.136329 0.136329
0.167620 0.167620 0.167620
0.190234 0.190234 0.190234
0.207499 0.207499 0.207499
0.218317 0.218317 0.218317
0.226488 0.226488 0.226488
0.235025 0.235025 0.235025
0.244103 0.244103 0.244103
0.254170 0.254170 0.254170
0.265339 0.265339 0.265339
0.277795 0.277795 0.277795
0.291266 0.291266 0.291266
0.075199 0.075199 0.075199
0.082610 0.082610 0.082610
0.099024 0.099024 0.099024
0.119741 0.119741 0.119741
0.149539 0.149539 0.149539
0.186227 0.186227 0.186227
0.215760 0.215760 0.215760
0.239933 0.239933 0.239933
0.261212 0.261212 0.261212
0.274186 0.274186 0.274186
0.285592 0.285592 0.285592
0.297169 0.297169 0.297169
0.309069 0.309069 0.309069
0.319053 0.319053 0.319053
0.329366 0.329366 0.329366
0.340311 0.340311 0.340311
0.105106 0.105106 0.105106
0.106986 0.106986 0.106986
0.123757 0.123757 0.123757
0.145124 0.145124 0.145124
0.172825 0.172825 0.172825
0.209014 0.209014 0.209014
0.245970 0.245970 0.245970
0.272123 0.272123 0.272123
0.298028 0.298028 0.298028
0.318066 0.318066 0.318066
0.330566 0.330566 0.330566
0.343403 0.343403 0.343403
0.357088 0.357088 0.357088
0.370047 0.370047 0.370047
0.380137 0.380137 0.380137
0.390768 0.390768 0.390768
0.138460 0.138460 0.138460
0.137248 0.137248 0.137248
0.150364 0.150364 0.150364
0.175233 0.175233 0.175233
0.203944 0.203944 0.203944
0.240155 0.240155 0.240155
0.282835 0.282835 0.282835
0.312274 0.312274 0.312274
0.339694 0.339694 0.339694
0.367089 0.367089 0.367089
0.381692 0.381692 0.381692
0.394529 0.394529 0.394529
0.408542 0.408542 0.408542
0.422567 0.422567 0.422567
0.433425 0.433425 0.433425
0.442414 0.442414 0.442414
0.175865 0.175865 0.175865
0.173986 0.173986 0.173986
0.178774 0.178774 0.178774
0.204874 0.204874 0.204874
0.236759 0.236759 0.236759
0.273338 0.273338 0.273338
0.316209 0.316209 0.316209
0.352062 0.352062 0.352062
0.379991 0.379991 0.379991
0.408424 0.408424 0.408424
0.430123 0.430123 0.430123
0.443028 0.443028 0.443028
0.457140 0.457140 0.457140
0.471642 0.471642 0.471642
0.484624 0.484624 0.484624
0.493641 0.493641 0.493641
0.210842 0.210842 0.210842
0.209245 0.209245 0.209245
0.211736 0.211736 0.211736
0.225955 0.225955 0.225955
0.266381 0.266381 0.266381
0.305540 0.305540 0.305540
0.349718 0.349718 0.349718
0.392338 0.392338 0.392338
0.421120 0.421120 0.421120
0.450286 0.450286 0.450286
0.476852 0.476852 0.476852
0.492183 0.492183 0.492183
0.506246 0.506246 0.506246
0.520408 0.520408 0.520408
0.534522 0.534522 0.534522
0.544413 0.544413 0.544413
0.244865 0.244865 0.244865
0.243524 0.243524 0.243524
0.246187 0.246187 0.246187
0.250671 0.250671 0.250671
0.288424 0.288424 0.288424
0.332671 0.332671 0.332671
0.378188 0.378188 0.378188
0.423597 0.423597 0.423597
0.455263 0.455263 0.455263
0.484292 0.484292 0.484292
0.512721 0.512721 0.512721
0.531687 0.531687 0.531687
0.545295 0.545295 0.545295
0.559135 0.559135 0.559135
0.572917 0.572917 0.572917
0.585485 0.585485 0.585485
0.274916 0.274916 0.274916
0.274477 0.274477 0.274477
0.277907 0.277907 0.277907
0.282840 0.282840 0.282840
0.305275 0.305275 0.305275
0.357066 0.357066 0.357066
0.405926 0.405926 0.405926
0.454237 0.454237 0.454237
0.489548 0.489548 0.489548
0.518410 0.518410 0.518410
0.547980 0.547980 0.547980
0.570203 0.570203 0.570203
0.584194 0.584194 0.584194
0.597826 0.597826 0.597826
0.611405 0.611405 0.611405
0.624826 0.624826 0.624826
0.302059 0.302059 0.302059
0.302339 0.302339 0.302339
0.306118 0.306118 0.306118
0.311232 0.311232 0.311232
0.326002 0.326002 0.326002
0.374863 0.374863 0.374863
0.428342 0.428342 0.428342
0.479509 0.479509 0.479509
0.519027 0.519027 0.519027
0.548834 0.548834 0.548834
0.578865 0.578865 0.578865
0.605226 0.605226 0.605226
0.619997 0.619997 0.619997
0.633985 0.633985 0.633985
0.647821 0.647821 0.647821
0.661407 0.661407 0.661407
0.329135 0.329135 0.329135
0.330985 0.330985 0.330985
0.334813 0.334813 0.334813
0.339870 0.339870 0.339870
0.347461 0.347461 0.347461
0.388694 0.388694 0.388694
0.449219 0.449219 0.449219
0.503104 0.503104 0.503104
0.545896 0.545896 0.545896
0.576609 0.576609 0.576609
0.606031 0.606031 0.606031
0.635500 0.635500 0.635500
0.651592 0.651592 0.651592
0.663487 0.663487 0.663487
0.676749 0.676749 0.676749
0.690220 0.690220 0.690220
0.353321 0.353321 0.353321
0.357472 0.357472 0.357472
0.362364 0.362364 0.362364
0.368644 0.368644 0.368644
0.376004 0.376004 0.376004
0.406484 0.406484 0.406484
0.469762 0.469762 0.469762
0.526532 0.526532 0.526532
0.572545 0.572545 0.572545
0.604965 0.604965 0.604965
0.634801 0.634801 0.634801
0.664618 0.664618 0.664618
0.684579 0.684579 0.684579
0.695695 0.695695 0.695695
0.706911 0.706911 0.706911
0.719183 0.719183 0.719183
0.372156 0.372156 0.372156
0.377334 0.377334 0.377334
0.382702 0.382702 0.382702
0.389445 0.389445 0.389445
0.398126 0.398126 0.398126
0.414810 0.414810 0.414810
0.486213 0.486213 0.486213
0.547997 0.547997 0.547997
0.598852 0.598852 0.598852
0.633622 0.633622 0.633622
0.664399 0.664399 0.664399
0.694535 0.694535 0.694535
0.717549 0.717549 0.717549
0.729161 0.729161 0.729161
0.740319 0.740319 0.740319
0.750740 0.750740 0.750740
0.390497 0.390497 0.390497
0.395399 0.395399 0.395399
0.400777 0.400777 0.400777
0.407610 0.407610 0.407610
0.416315 0.416315 0.416315
0.426992 0.426992 0.426992
0.495552 0.495552 0.495552
0.560823 0.560823 0.560823
0.614263 0.614263 0.614263
0.651518 0.651518 0.651518
0.684429 0.684429 0.684429
0.716812 0.716812 0.716812
0.746066 0.746066 0.746066
0.757828 0.757828 0.757828
0.769691 0.769691 0.769691
0.781472 0.781472 0.781472
0.408921 0.408921 0.408921
0.413742 0.413742 0.413742
0.419032 0.419032 0.419032
0.425685 0.425685 0.425685
0.434229 0.434229 0.434229
0.444959 0.444959 0.444959
0.503797 0.503797 0.503797
0.573187 0.573187 0.573187
0.629033 0.629033 0.629033
0.667568 0.667568 0.667568
0.701163 0.701163 0.701163
0.734208 0.734208 0.734208
0.766910 0.766910 0.766910
0.780472 0.780472 0.780472
0.792559 0.792559 0.792559
0.804102 0.804102 0.804102
0.427339 0.427339 0.427339
0.432160 0.432160 0.432160
0.437367 0.437367 0.437367
0.443857 0.443857 0.443857
0.452220 0.452220 0.452220
0.462828 0.462828 0.462828
0.510572 0.510572 0.510572
0.585425 0.585425 0.585425
0.643179 0.643179 0.643179
0.682631 0.682631 0.682631
0.716822 0.716822 0.716822
0.750267 0.750267 0.750267
0.783724 0.783724 0.783724
0.800996 0.800996 0.800996
0.813988 0.813988 0.813988
0.826585 0.826585 0.826585
0.049637 0.049637 0.049637
0.104421 0.104421 0.104421
0.130578 0.130578 0.130578
0.132712 0.132712 0.132712
0.149327 0.149327 0.149327
0.168726 0.168726 0.168726
0.181578 0.181578 0.181578
0.192275 0.192275 0.192275
0.202679 0.202679 0.202679
0.212727 0.212727 0.212727
0.219894 0.219894 0.219894
0.224968 0.224968 0.224968
0.229899 0.229899 0.229899
0.234814 0.234814 0.234814
0.239807 0.239807 0.239807
0.244801 0.244801 0.244801
0.060636 0.060636 0.060636
0.073830 0.073830 0.073830
0.092653 0.092653 0.092653
0.117506 0.117506 0.117506
0.151037 0.151037 0.151037
0.180055 0.180055 0.180055
0.201545 0.201545 0.201545
0.217496 0.217496 0.217496
0.226826 0.226826 0.226826
0.233933 0.233933 0.233933
0.241363 0.241363 0.241362
0.249415 0.249415 0.249415
0.258211 0.258211 0.258211
0.268211 0.268211 0.268211
0.279587 0.279587 0.279587
0.292294 0.292294 0.292294
0.084944 0.084944 0.084944
0.093427 0.093427 0.093427
0.111376 0.111376 0.111376
0.132976 0.132976 0.132976
0.164367 0.164367 0.164367
0.200745 0.200745 0.200745
0.228497 0.228497 0.228497
0.252565 0.252565 0.252565
0.272575 0.272575 0.272575
0.284629 0.284629 0.284629
0.295303 0.295303 0.295303
0.306092 0.306092 0.306092
0.316634 0.316634 0.316634
0.324963 0.324963 0.324963
0.334063 0.334063 0.334063
0.343881 0.343881 0.343881
0.115749 0.115749 0.115749
0.116748 0.116748 0.116748
0.135277 0.135277 0.135277
0.157812 0.157812 0.157812
0.187134 0.187134 0.187134
0.224615 0.224615 0.224615
0.259305 0.259305 0.259305
0.285604 0.285604 0.285604
0.311941 0.311941 0.311941
0.330060 0.330060 0.330060
0.342039 0.342039 0.342039
0.354220 0.354220 0.354220
0.366594 0.366594 0.366594
0.376995 0.376995 0.376995
0.385637 0.385637 0.385637
0.394894 0.394894 0.394894
0.150743 0.150743 0.150743
0.148949 0.148949 0.148949
0.161337 0.161337 0.161337
0.187893 0.187893 0.187893
0.218394 0.218394 0.218394
0.256262 0.256262 0.256262
0.298387 0.298387 0.298387
0.326790 0.326790 0.326790
0.354723 0.354723 0.354723
0.381403 0.381403 0.381403
0.395044 0.395044 0.395044
0.407745 0.407745 0.407745
0.420251 0.420251 0.420251
0.431913 0.431913 0.431913
0.440419 0.440419 0.440419
0.447803 0.447803 0.447803
0.189692 0.189692 0.189692
0.187438 0.187438 0.187438
0.191429 0.191429 0.191429
0.215978 0.215978 0.215978
0.250447 0.250447 0.250447
0.289216 0.289216 0.289216
0.333741 0.333741 0.333741
0.367693 0.367693 0.367693
0.396425 0.396425 0.396425
0.425556 0.425556 0.425556
0.445118 0.445118 0.445118
0.457476 0.457476 0.457476
0.469780 0.469780 0.469780
0.481856 0.481856 0.481856
0.491968 0.491968 0.491968
0.498933 0.498933 0.498933
0.225640 0.225640 0.225640
0.224212 0.224212 0.224212
0.227096 0.227096 0.227096
0.234365 0.234365 0.234365
0.280043 0.280043 0.280043
0.322201 0.322201 0.322201
0.368415 0.368415 0.368415
0.409834 0.409834 0.409834
0.439713 0.439713 0.439713
0.469560 0.469560 0.469560
0.495862 0.495862 0.495862
0.508991 0.508991 0.508991
0.520928 0.520928 0.520928
0.532428 0.532428 0.532428
0.543649 0.543649 0.543649
0.550525 0.550525 0.550525
0.259679 0.259679 0.259679
0.259461 0.259461 0.259461
0.262437 0.262437 0.262437
0.266636 0.266636 0.266636
0.299434 0.299434 0.299434
0.348864 0.348864 0.348864
0.396805 0.396805 0.396805
0.443231 0.443231 0.443231
